docs/img/icons/robot.svg

<svg width="70" height="70" viewBox="0 0 70 70" fill="none" xmlns="http://www.w3.org/2000/svg">
<path d="M12.4193 32.7419H10.1613V35H12.4193V32.7419Z" fill="white"/>
<path d="M10.1613 29.3549H7.9032V31.6129H10.1613V29.3549Z" fill="white"/>
<path d="M20.3226 35H18.0646V37.2581H20.3226V35Z" fill="white"/>
<path d="M24.8388 32.7419H22.5807V35H24.8388V32.7419Z" fill="white"/>
<path d="M55.3225 65.4839C59.0585 65.4839 62.0967 62.4457 62.0967 58.7097C62.0967 54.9738 59.0585 51.9355 55.3225 51.9355C51.5866 51.9355 48.5483 54.9738 48.5483 58.7097C48.5483 62.4457 51.5866 65.4839 55.3225 65.4839ZM50.9882 57.5118L52.8025 58.5596L53.9316 56.6041L52.1048 55.5485C52.6693 54.9738 53.3896 54.5628 54.1935 54.3539V56.4517H56.4516V54.3539C57.2543 54.5628 57.9758 54.9738 58.5403 55.5485L56.7146 56.603L57.8437 58.5585L59.658 57.5107C59.763 57.8957 59.8387 58.292 59.8387 58.7097C59.8387 59.1275 59.763 59.5238 59.6569 59.9076L57.8425 58.8599L56.7135 60.8154L58.5403 61.871C57.9758 62.4457 57.2543 62.8567 56.4516 63.0655V60.9678H54.1935V63.0655C53.3908 62.8567 52.6693 62.4457 52.1048 61.871L53.9304 60.8165L52.8014 58.861L50.987 59.9088C50.882 59.5238 50.8064 59.1275 50.8064 58.7097C50.8064 58.292 50.882 57.8957 50.9882 57.5118Z" fill="white"/>
<path d="M67.7419 67.7419V47.4194H65.4839V40.6452H62.0968V27.7595C62.8092 26.5729 63.2258 25.191 63.2258 23.7097C63.2258 20.9063 61.7535 18.445 59.5474 17.0416L49.3421 5.63726C48.3655 2.38113 45.3442 0 41.7742 0C39.0013 0 36.5615 1.43952 35.1502 3.60726L22.0026 16.0966C20.8295 17.211 20.1713 18.716 20.1498 20.3339C20.1352 21.5126 20.4682 22.6371 21.0881 23.6058L15.0082 29.6856L16.6047 31.2821L22.6495 25.2373C23.6815 25.979 24.8861 26.3685 26.101 26.3674C27.545 26.3674 28.9924 25.8413 30.1384 24.7834L40.0694 15.6156C40.4092 15.6913 40.7569 15.7432 41.1126 15.7726L47.46 22.9126C47.4329 23.1756 47.4194 23.441 47.4194 23.7097C47.4194 25.191 47.8371 26.5729 48.5484 27.7595V40.6452H45.1613V47.4194H42.9032V67.7419H22.5806V47.4194H20.3226V45.1613H22.5806V42.9032H20.2085C19.6835 40.3302 17.404 38.3871 14.6774 38.3871H4.51613V42.9032H2.25806V45.1613H4.51613V47.4194H2.25806V67.7419H0V70H2.25806H22.5806H42.9032H67.7419H70V67.7419H67.7419ZM6.77419 40.6452H14.6774C16.1474 40.6452 17.3894 41.5924 17.8568 42.9032H6.77419V40.6452ZM6.77419 45.1613H18.0645V47.4194H6.77419V45.1613ZM20.3226 56.4516H18.0645V58.7097H20.3226V67.7419H4.51613V58.7097H15.8065V56.4516H4.51613V49.6774H20.3226V56.4516ZM60.9677 23.7097C60.9677 26.8224 58.4353 29.3548 55.3226 29.3548C52.2098 29.3548 49.6774 26.8224 49.6774 23.7097C49.6774 20.5969 52.2098 18.0645 55.3226 18.0645C58.4353 18.0645 60.9677 20.5969 60.9677 23.7097ZM59.8387 30.1858V40.6452H50.8065V30.1858C52.0879 31.0823 53.6437 31.6129 55.3226 31.6129C57.0015 31.6129 58.5573 31.0823 59.8387 30.1858ZM28.6074 23.1237C27.1442 24.474 24.8985 24.43 23.4906 23.0221C22.7805 22.3119 22.3955 21.3669 22.409 20.3632C22.4226 19.3595 22.8302 18.4247 23.5584 17.7337L33.8732 7.93371C33.8845 10.806 35.4392 13.3147 37.7458 14.6887L28.6074 23.1237ZM41.7663 13.5484C38.6569 13.5427 36.129 11.0126 36.129 7.90323C36.129 4.79048 38.6615 2.25806 41.7742 2.25806C44.8869 2.25806 47.4194 4.79048 47.4194 7.90323C47.4194 11.0137 44.8892 13.545 41.7787 13.5484H41.7663ZM48.1871 20.335L43.8968 15.5084C46.7995 14.6966 49.0282 12.2692 49.5521 9.25806L55.4152 15.811C55.3847 15.811 55.3542 15.8065 55.3226 15.8065C52.1737 15.8065 49.4561 17.6626 48.1871 20.335ZM47.4194 42.9032H48.5484H62.0968H63.2258V47.4194H47.4194V42.9032ZM65.4839 67.7419H45.1613V49.6774H65.4839V67.7419Z" fill="white"/>
</svg>

<svg width="70" height="70" fill="none" xmlns="http://www.w3.org/2000/svg"><path d="M12.42 32.742h-2.26V35h2.258v-2.258zm-2.259-3.387H7.903v2.258h2.258v-2.258zM20.323 35h-2.258v2.258h2.258V35zm4.516-2.258H22.58V35h2.258v-2.258zm30.483 32.742a6.781 6.781 0 006.775-6.774 6.781 6.781 0 00-6.775-6.775 6.781 6.781 0 00-6.774 6.775 6.781 6.781 0 006.774 6.774zm-4.334-7.972l1.815 1.048 1.129-1.956-1.827-1.056a4.504 4.504 0 012.089-1.194v2.098h2.258v-2.098a4.51 4.51 0 012.088 1.194l-1.825 1.055 1.129 1.956 1.814-1.048c.105.385.18.781.18 1.199 0 .417-.075.814-.181 1.198l-1.814-1.048-1.13 1.955 1.827 1.056a4.509 4.509 0 01-2.088 1.194v-2.097h-2.258v2.097a4.509 4.509 0 01-2.09-1.194l1.826-1.055-1.129-1.955-1.814 1.048a4.529 4.529 0 01-.18-1.2c0-.417.075-.813.181-1.197z" fill="#fff"/><path d="M67.742 67.742V47.419h-2.258v-6.774h-3.387V27.76a7.84 7.84 0 001.129-4.05c0-2.803-1.472-5.264-3.679-6.667L49.342 5.637C48.365 2.381 45.344 0 41.774 0c-2.773 0-5.212 1.44-6.624 3.607l-13.147 12.49a5.908 5.908 0 00-1.853 4.237 5.908 5.908 0 00.938 3.272l-6.08 6.08 1.597 1.596 6.044-6.045a5.906 5.906 0 003.452 1.13 5.936 5.936 0 004.037-1.584l9.931-9.167c.34.075.688.127 1.044.157l6.347 7.14a7.85 7.85 0 001.088 4.847v12.885h-3.387v6.774h-2.258v20.323H22.581V47.419h-2.258v-2.258h2.258v-2.258h-2.372a5.655 5.655 0 00-5.532-4.516H4.517v4.516h-2.26v2.258h2.258v2.258H2.258v20.323H0V70h70v-2.258h-2.258zM6.774 40.645h7.903c1.47 0 2.712.947 3.18 2.258H6.774v-2.258zm0 4.516h11.29v2.258H6.774v-2.258zm13.549 11.29h-2.259v2.259h2.259v9.032H4.516V58.71h11.29v-2.258H4.517v-6.775h15.807v6.775zM60.968 23.71a5.652 5.652 0 01-5.645 5.645 5.652 5.652 0 01-5.646-5.645 5.652 5.652 0 015.646-5.646 5.652 5.652 0 015.645 5.646zm-1.13 6.476v10.46h-9.032v-10.46a7.853 7.853 0 009.033 0zm-31.23-7.062a3.682 3.682 0 01-5.117-.102 3.664 3.664 0 01-1.082-2.659 3.666 3.666 0 011.15-2.63l10.314-9.8a7.898 7.898 0 003.873 6.756l-9.139 8.435zm13.158-9.576a5.653 5.653 0 01-5.637-5.645 5.652 5.652 0 015.645-5.645 5.652 5.652 0 015.645 5.645c0 3.11-2.53 5.642-5.64 5.645h-.013zm6.421 6.787l-4.29-4.827a7.918 7.918 0 005.655-6.25l5.863 6.553c-.03 0-.06-.005-.092-.005-3.15 0-5.867 1.857-7.136 4.529zm-.768 22.568h15.807v4.516H47.419v-4.516zm18.065 24.839H45.16V49.677h20.323v18.065z" fill="#fff"/></svg>
